X: 91
T: Kilfenora Jig or Paddy's Return
M: 6/8
L: 1/8
R: jig
K:Dmaj
B|"D"AFD DFA|"G"BdB "D"BAF|ABA F2D|"A"FEE E2B|
"D"AFD DFA|"G"BdB "D"BAF|ABA F2E|1 FDD D2:|2 FDD D2e||
|: "D"f2d dcd|f2d d2e|~f3 def|"G"~g3 efg|
"D"fed "G"B2d|"D"A2d F2G|ABA F2E|1 FDD D2e:|2 FDD D2|]


